X:4058
T:Mason's apron, The
O:england
M:C|
R:Reel
K:A
af|ec (3ccc BcAF|EFAB c2BA|FB {d}(3BAB cB {d}(3BAB|cefg abaf|\
e2cA BF {G}(3FEF|EFAB cABc|~d3e fgaf|edcB A2AB||\
(3cBA ec fcec|(3cBA eA fcec|df {a}(3fef af {a}(3fef|df {a}(3fef afec|\
Acec fcec|Ac (3ccc fcec|~d3e fgaf|edcB A2||
